build/svg/cmd/sc_displaymasterbackground.svg

<?xml version="1.0" encoding="UTF-8" standalone="no"?>
<svg
   xmlns:dc="http://purl.org/dc/elements/1.1/"
   xmlns:cc="http://creativecommons.org/ns#"
   xmlns:rdf="http://www.w3.org/1999/02/22-rdf-syntax-ns#"
   xmlns:svg="http://www.w3.org/2000/svg"
   xmlns="http://www.w3.org/2000/svg"
   xmlns:sodipodi="http://sodipodi.sourceforge.net/DTD/sodipodi-0.dtd"
   xmlns:inkscape="http://www.inkscape.org/namespaces/inkscape"
   viewBox="0 0 16 16"
   version="1.1"
   id="svg4"
   sodipodi:docname="sc_displaymasterbackground.svg"
   inkscape:export-filename="/home/jupiter007/Libreoffice yaru theme fullcolor/build/cmd/sc_displaymasterbackground.png"
   inkscape:export-xdpi="95"
   inkscape:export-ydpi="95"
   inkscape:version="0.92.5 (2060ec1f9f, 2020-04-08)">
  <metadata
     id="metadata10">
    <rdf:RDF>
      <cc:Work
         rdf:about="">
        <dc:format>image/svg+xml</dc:format>
        <dc:type
           rdf:resource="http://purl.org/dc/dcmitype/StillImage" />
      </cc:Work>
    </rdf:RDF>
  </metadata>
  <defs
     id="defs8" />
  <sodipodi:namedview
     pagecolor="#ffffff"
     bordercolor="#666666"
     borderopacity="1"
     objecttolerance="10"
     gridtolerance="10"
     guidetolerance="10"
     inkscape:pageopacity="0"
     inkscape:pageshadow="2"
     inkscape:window-width="1920"
     inkscape:window-height="1011"
     id="namedview6"
     showgrid="false"
     inkscape:zoom="14.75"
     inkscape:cx="0.44067797"
     inkscape:cy="8"
     inkscape:window-x="1920"
     inkscape:window-y="32"
     inkscape:window-maximized="1"
     inkscape:current-layer="svg4" />
  <path
     sodipodi:nodetypes="cccscsccccccccscscccccc"
     inkscape:connector-curvature="0"
     id="path4237-1"
     d="M 4.994116,1.9997085 C 3.735916,2.0142085 2.815225,1.9691045 2.062475,2.3844741 1.686105,2.5921341 1.389244,2.943861 1.224584,3.382521 1.059914,3.821191 0.999975,4.3421085 0.999975,4.9997085 v 1.488281 4.5123025 c 0,0.65761 0.0599,1.178577 0.224609,1.617188 0.16468,0.438611 0.461531,0.788524 0.837891,0.996093 0.75272,0.41513 1.673541,0.371649 2.931641,0.386719 h 0.002 6.005859 0.0039 c 1.25819,-0.0145 2.178891,0.0306 2.931641,-0.384766 0.37637,-0.20766 0.673221,-0.559386 0.837891,-0.998046 0.164539,-0.438671 0.224618,-0.959578 0.224618,-1.617188 V 6.4665055 4.9997085 c 0,-0.6576 -0.0599,-1.1785775 -0.224609,-1.6171875 -0.16468,-0.4386 -0.461531,-0.7885338 -0.837891,-0.9960937 -0.75277,-0.41513 -1.673601,-0.3716388 -2.931691,-0.3867188 h -0.002 -6.0058591 z"
     style="font-style:normal;font-variant:normal;font-weight:normal;font-stretch:normal;font-size:15px;line-height:125%;font-family:Ubuntu;-inkscape-font-specification:Ubuntu;text-align:center;letter-spacing:0px;word-spacing:0px;writing-mode:lr-tb;text-anchor:middle;display:inline;opacity:0.6;fill:#000000;fill-opacity:1;stroke:none;stroke-width:0.99980211" />
  <path
     inkscape:connector-curvature="0"
     id="path1993"
     d="M 7.983344,3.0268933 C 6.426763,3.0376893 4.873354,3.0151413 3.323403,3.0656683 2.862174,3.1083363 2.307215,3.2720877 2.168063,3.7756351 1.949069,4.4109815 2.059649,5.1094223 2.022267,5.7575594 c -0.0078,2.2970841 -0.02297,3.5964281 0.02152,5.8857806 0.0391,0.461929 0.202551,1.012666 0.698756,1.163666 0.632456,0.225082 1.284144,0.12274 1.935974,0.154298 1.424235,0.0068 2.850563,0.01102 4.27642,0.01131 1.704531,3.5e-4 1.408388,-0.005 3.10719,-0.01851 0.511911,-0.01201 1.183699,0.01993 1.584745,-0.405191 0.421097,-0.539783 0.287073,-1.268021 0.322745,-1.903787 0.01187,-2.4443235 0.02769,-3.9110955 -0.0219,-6.356795 C 13.898441,3.8862907 13.777725,3.4253789 13.372578,3.2438558 12.704409,2.9497584 11.946373,3.0758369 11.246657,3.0382831 9.49225,3.0264805 9.737783,3.0257987 7.983344,3.0268933 Z"
     style="opacity:1;vector-effect:none;fill:#aee3f8;fill-opacity:1;stroke:none;stroke-width:1;stroke-linecap:round;stroke-linejoin:bevel;stroke-miterlimit:4;stroke-dasharray:none;stroke-dashoffset:0;stroke-opacity:1"
     sodipodi:nodetypes="cccccccsccccccc" />
  <path
     style="color:#000000;display:inline;overflow:visible;visibility:visible;opacity:1;fill:#232629;fill-opacity:1;fill-rule:nonzero;stroke:none;stroke-width:18.28524208;marker:none;enable-background:accumulate"
     d="m 5.994116,6.9997085 -2,4.0000005 h 8 l -2.510772,-3.0000005 -1.5,2 z"
     id="path1099"
     inkscape:connector-curvature="0"
     sodipodi:nodetypes="cccccc" />
  <path
     style="opacity:1;vector-effect:none;fill:#232629;fill-opacity:1;stroke:none;stroke-width:1.88642752;stroke-linecap:round;stroke-linejoin:bevel;stroke-miterlimit:4;stroke-dasharray:none;stroke-dashoffset:0;stroke-opacity:1"
     id="path3397"
     sodipodi:type="arc"
     sodipodi:cx="9.9392986"
     sodipodi:cy="6.0480199"
     sodipodi:rx="0.94321376"
     sodipodi:ry="0.94321376"
     sodipodi:start="6.2325882"
     sodipodi:end="6.2319424"
     sodipodi:open="true"
     d="M 10.881305,6.0003164 A 0.94321376,0.94321376 0 0 1 9.9871542,6.9900188 0.94321376,0.94321376 0 0 1 8.9973074,6.0960276 0.94321376,0.94321376 0 0 1 9.8911388,5.1060364 0.94321376,0.94321376 0 0 1 10.881274,5.999708" />
  <circle
     style="opacity:0.6;fill:#000000;fill-opacity:1;fill-rule:evenodd;stroke:#000000;stroke-width:2;stroke-linecap:butt;stroke-linejoin:round;stroke-miterlimit:4;stroke-dasharray:none;stroke-opacity:1"
     id="path831"
     cx="12"
     cy="12"
     r="3" />
  <circle
     r="3"
     cy="12"
     cx="12"
     id="circle833"
     style="opacity:1;fill:#ffffff;fill-opacity:1;fill-rule:evenodd;stroke:none;stroke-width:2;stroke-linecap:butt;stroke-linejoin:round;stroke-miterlimit:4;stroke-dasharray:none;stroke-opacity:1" />
  <path
     d="m 11.999999,9.9999998 c -1.104569,0 -1.9999998,0.8954312 -1.9999998,2.0000002 0,1.10457 0.8954308,2 1.9999998,2 1.104569,0 2,-0.89543 2,-2 0.02896,-0.194894 0.02896,-0.392997 0,-0.587891 -0.174008,0.38903 -0.57545,0.625034 -1,0.587891 -0.552285,0 -1,-0.447715 -1,-1 -0.03682,-0.425027 0.200048,-0.826612 0.589844,-1.0000002 -0.195534,-0.02915 -0.39431,-0.02915 -0.589844,0 z"
     id="path2"
     inkscape:connector-curvature="0"
     style="fill:#232629"
     sodipodi:nodetypes="csscccccc" />
</svg>

<svg xmlns="http://www.w3.org/2000/svg" viewBox="0 0 16 16"><path d="M4.994 2c-1.258.014-2.179-.03-2.932.384a1.88 1.88 0 00-.837.999C1.06 3.82 1 4.343 1 5v6c0 .658.06 1.179.225 1.617.164.44.461.789.837.997.753.415 1.674.371 2.932.386h6.012c1.258-.014 2.179.03 2.932-.384a1.88 1.88 0 00.837-.999c.165-.438.225-.96.225-1.617V5c0-.658-.06-1.179-.225-1.617a1.875 1.875 0 00-.837-.997c-.753-.415-1.674-.371-2.932-.386H4.998z" style="line-height:125%;-inkscape-font-specification:Ubuntu;text-align:center" font-weight="400" font-size="15" font-family="Ubuntu" letter-spacing="0" word-spacing="0" text-anchor="middle" opacity=".6"/><path d="M7.983 3.027c-1.556.01-3.11-.012-4.66.039-.46.042-1.016.206-1.155.71-.219.635-.108 1.333-.146 1.982-.008 2.297-.023 3.596.022 5.885.039.462.202 1.013.699 1.164.632.225 1.284.123 1.936.154 1.424.007 2.85.011 4.276.012 1.704 0 1.408-.005 3.107-.019.512-.012 1.184.02 1.585-.405.421-.54.287-1.268.323-1.904.011-2.444.027-3.911-.022-6.357-.05-.402-.17-.863-.575-1.044-.669-.294-1.427-.168-2.126-.206-1.755-.012-1.51-.012-3.264-.011z" fill="#aee3f8"/><path style="marker:none" d="M5.994 7l-2 4h8l-2.51-3-1.5 2z" color="#000" overflow="visible" fill="#232629"/><path d="M10.881 6a.943.943 0 01-.894.99.943.943 0 01-.99-.894.943.943 0 01.894-.99.943.943 0 01.99.894" fill="#232629"/><circle cx="12" cy="12" r="3" opacity=".6" fill-rule="evenodd" stroke="#000" stroke-width="2" stroke-linejoin="round"/><circle r="3" cy="12" cx="12" fill="#fff" fill-rule="evenodd"/><path d="M12 10a2 2 0 102 2 2 2 0 000-.588A1 1 0 0113 12a1 1 0 01-1-1 1 1 0 01.59-1 2 2 0 00-.59 0z" fill="#232629"/></svg>
